svgs/light/signal-bars.svg

<svg xmlns="http://www.w3.org/2000/svg" viewBox="0 0 640 512"><!-- Font Awesome Pro 6.0.0-alpha2 by @fontawesome - https://fontawesome.com License - https://fontawesome.com/license (Commercial License) --><path d="M576 0H544C526.328 0 512 14.328 512 32V480C512 497.672 526.328 512 544 512H576C593.674 512 608 497.672 608 480V32C608 14.328 593.674 0 576 0ZM576 480H544V32H576V480ZM416 128H384C366.328 128 352 142.328 352 160V480C352 497.672 366.328 512 384 512H416C433.674 512 448 497.672 448 480V160C448 142.328 433.674 128 416 128ZM416 480H384V160H416V480ZM256 256H224C206.328 256 192 270.328 192 288V480C192 497.672 206.328 512 224 512H256C273.674 512 288 497.672 288 480V288C288 270.328 273.674 256 256 256ZM256 480H224V288H256V480ZM96 384H64C46.328 384 32 398.328 32 416V480C32 497.672 46.328 512 64 512H96C113.674 512 128 497.672 128 480V416C128 398.328 113.674 384 96 384ZM96 480H64V416H96V480Z"/></svg>

<svg xmlns="http://www.w3.org/2000/svg" viewBox="0 0 640 512"><!--! Font Awesome Pro 6.3.0 by @fontawesome - https://fontawesome.com License - https://fontawesome.com/license (Commercial License) Copyright 2023 Fonticons, Inc. --><path d="M576 0h-32c-17.67 0-32 14.33-32 32v448c0 17.67 14.33 32 32 32h32c17.67 0 32-14.33 32-32V32C608 14.33 593.7 0 576 0zM576 480h-32V32h32V480zM416 128h-32c-17.67 0-32 14.33-32 32v320c0 17.67 14.33 32 32 32h32c17.67 0 32-14.33 32-32V160C448 142.3 433.7 128 416 128zM416 480h-32V160h32V480zM256 256H224C206.3 256 192 270.3 192 288v192c0 17.67 14.33 32 32 32h32c17.67 0 32-14.33 32-32V288C288 270.3 273.7 256 256 256zM256 480H224V288h32V480zM96 384H64c-17.67 0-32 14.33-32 32v64c0 17.67 14.33 32 32 32h32c17.67 0 32-14.33 32-32v-64C128 398.3 113.7 384 96 384zM96 480H64v-64h32V480z"/></svg>
